X:1
T:Title
%%score { 1 | 2 }
L:1/8
M:4/4
K:F
V:1 treble nm="Grand Piano"
V:2 bass 
V:1
 z4 z2[Q:1/4=100] F2 | A2 [Fc]2 [FB]2 [FA]2 | [EA]3 [EG] F2 A2 | [Gc]2 [Ff]2 [Ge]2 [Fd]2 | %4
[M:3/4] [Ec]6 |[M:1/4] [Fc]2 |[M:4/4] [^Fd]3 [Ac] [GB]2 [=Fd]2 | [Ec]3 [GB] [FA]2 [Fc]2 | %8
 [B,FB]2 [CFA]2 [DG]2 [B,EG]2 |[M:3/4] [A,F]6 |] %10
V:2
 z4 z2 [F,A,]2 | [F,CF]2 [_E,A,]2 [D,B,]2 [C,C]2 | [C,C]3 [C,B,] [F,A,]2 [F,CF]2 | %3
 [E,C]2 [D,D]2 [G,C]2 [G,=B,]2 |[M:3/4] [C,C]6 |[M:1/4] [F,A,]2 | %6
[M:4/4] [D,A,]3 [^F,D] [G,D]2 [G,B,]2 | [C,G,]3 [E,C] [F,C]2 [_E,A,]2 | D,2 C,2 B,,2 C,2 | %9
[M:3/4] F,6 |] %10

